filter-off.svg

<svg fill="currentColor" viewBox="0 0 24 24"><path d="M2.39 1.73 1.11 3l8.39 8.37.47.63H10v5.87c-.04.29.06.6.29.83l2.01 2.01c.39.39 1.02.39 1.41 0 .23-.21.33-.53.29-.83v-3.99l6.84 6.84 1.27-1.27L14 13.35 9.41 8.76 4.15 3.5zM6.21 3l8.33 8.34 5.25-6.72a1 1 0 0 0-.17-1.4c-.19-.14-.4-.22-.62-.22z"/></svg>

<svg  viewBox="0 0 24 24" fill="currentColor"><path  d="M2.39 1.73L1.11 3L9.5 11.37L9.97 12H10V17.87C9.96 18.16 10.06 18.47 10.29 18.7L12.3 20.71C12.69 21.1 13.32 21.1 13.71 20.71C13.94 20.5 14.04 20.18 14 19.88V15.89L20.84 22.73L22.11 21.46L14 13.35L9.41 8.76L4.15 3.5L2.39 1.73M6.21 3L14.54 11.34L19.79 4.62C20.13 4.19 20.05 3.56 19.62 3.22C19.43 3.08 19.22 3 19 3H6.21Z"/></svg>
